src/icons/dotnet.svg

<svg width="64" height="64" viewBox="0 0 64 64" fill="none" xmlns="http://www.w3.org/2000/svg">
<path d="M64 0H0V64H64V0Z" fill="#512BD4"/>
<path d="M11.4074 40.8886C10.9549 40.8886 10.5703 40.7379 10.2535 40.4363C9.93671 40.1269 9.77832 39.7596 9.77832 39.3344C9.77832 38.9013 9.93671 38.5302 10.2535 38.2208C10.5703 37.9115 10.9549 37.7568 11.4074 37.7568C11.8675 37.7568 12.2559 37.9115 12.5727 38.2208C12.897 38.5302 13.0591 38.9013 13.0591 39.3344C13.0591 39.7596 12.897 40.1269 12.5727 40.4363C12.2559 40.7379 11.8675 40.8886 11.4074 40.8886Z" fill="white"/>
<path d="M29.4971 40.6337H26.5557L18.8062 28.4079C18.6101 28.0985 18.4479 27.7775 18.3197 27.4451H18.2518C18.3122 27.8008 18.3423 28.5625 18.3423 29.7301V40.6337H15.7402V24H18.874L26.3634 35.9359C26.6802 36.4309 26.8838 36.7711 26.9743 36.9566H27.0195C26.9442 36.5159 26.9064 35.7697 26.9064 34.7179V24H29.4971V40.6337Z" fill="white"/>
<path d="M42.1686 40.6337H33.0615V24H41.8067V26.3432H35.7542V31.0525H41.3316V33.384H35.7542V38.3022H42.1686V40.6337Z" fill="white"/>
<path d="M55.1118 26.3432H50.4507V40.6337H47.7581V26.3432H43.1084V24H55.1118V26.3432Z" fill="white"/>
</svg>

<svg xmlns="http://www.w3.org/2000/svg" fill="none" viewBox="0 0 64 64"><defs/><path fill="#512BD4" d="M64 0H0v64h64V0z"/><path fill="#fff" d="M11.407 40.889c-.452 0-.837-.151-1.153-.453a1.488 1.488 0 01-.476-1.102c0-.433.159-.804.476-1.113a1.59 1.59 0 011.153-.464c.46 0 .849.154 1.166.464.324.31.486.68.486 1.113 0 .426-.162.793-.486 1.102a1.626 1.626 0 01-1.166.453zM29.497 40.634h-2.941l-7.75-12.226a5.478 5.478 0 01-.486-.963h-.068c.06.356.09 1.117.09 2.285v10.904H15.74V24h3.134l7.49 11.936c.316.495.52.835.61 1.02h.046c-.076-.44-.114-1.186-.114-2.238V24h2.591v16.634zM42.169 40.634h-9.107V24h8.745v2.343h-6.053v4.71h5.578v2.331h-5.578v4.918h6.415v2.332zM55.112 26.343H50.45v14.29h-2.693v-14.29h-4.65V24h12.004v2.343z"/></svg>
